icons/24x24_card_scanner_outline.svg

<svg xmlns="http://www.w3.org/2000/svg" width="24" height="24" viewBox="0 0 24 24">
  <path fill-rule="evenodd" d="M10,14 L10,11 L11,11 C11.5522847,11 12,10.5522847 12,10 C12,9.44771525 11.5522847,9 11,9 L10,9 L10,4 L20,4 C21.6293592,4 23,5.19931072 23,6.75 L23,18.25 C23,19.8006893 21.6293592,21 20,21 L10,21 L10,16 L11,16 C11.5522847,16 12,15.5522847 12,15 C12,14.4477153 11.5522847,14 11,14 L10,14 Z M17,9 C15.8954305,9 15,9.8954305 15,11 C15,12.1045695 15.8954305,13 17,13 C18.1045695,13 19,12.1045695 19,11 C19,9.8954305 18.1045695,9 17,9 Z M14,17 L20,17 C20,15.3431458 18.6568542,14 17,14 C15.3431458,14 14,15.3431458 14,17 Z M7,21 L3.38461538,21 C2.00945501,21 1,19.724161 1,18.25 L1,6.75 C1,5.27583897 2.00945501,4 3.38461538,4 L7,4 L7,2 C7,1.44771525 7.44771525,1 8,1 C8.55228475,1 9,1.44771525 9,2 L9,22 C9,22.5522847 8.55228475,23 8,23 C7.44771525,23 7,22.5522847 7,22 L7,21 Z M7,16 L6,16 C5.44771525,16 5,15.5522847 5,15 C5,14.4477153 5.44771525,14 6,14 L7,14 L7,11 L6,11 C5.44771525,11 5,10.5522847 5,10 C5,9.44771525 5.44771525,9 6,9 L7,9 L7,6 L3.5,6 C3.22385763,6 3,6.22385763 3,6.5 L3,18.5 C3,18.7761424 3.22385763,19 3.5,19 L7,19 L7,16 Z"/>
</svg>

<svg width="24" height="24" fill="none" xmlns="http://www.w3.org/2000/svg"><path fill-rule="evenodd" clip-rule="evenodd" d="M10 14v-3h1a1 1 0 1 0 0-2h-1V4h10c1.63 0 3 1.2 3 2.75v11.5C23 19.8 21.63 21 20 21H10v-5h1a1 1 0 1 0 0-2h-1Zm7-5a2 2 0 1 0 0 4 2 2 0 0 0 0-4Zm-3 8h6a3 3 0 1 0-6 0Zm-7 4H3.385C2.009 21 1 19.724 1 18.25V6.75C1 5.276 2.01 4 3.385 4H7V2a1 1 0 0 1 2 0v20a1 1 0 1 1-2 0v-1Zm0-5H6a1 1 0 1 1 0-2h1v-3H6a1 1 0 1 1 0-2h1V6H3.5a.5.5 0 0 0-.5.5v12a.5.5 0 0 0 .5.5H7v-3Z" fill="#000"/></svg>
